X: 67
T:Corsican Fairy,The. BF11.67
M:6/8
L:1/8
Q:120
C:Browne A hand
S:MS11,c1800.,Browne Coll.,Lakes
R:Quadrille
O:England
A:Lakes
Z:vmp.Chris Partington.
K:C
A2ce2c|d2Af2d|ecA aec|BGEE3|!
A2ce2c|dBd fga|edc BAG|A3A3:|!
|:EGB dBG|Aed cBA|Dag ecA|BGEE3|!
AEG FDE|DFA dfa|edc BAG|A3A3:|]
